src/lib/packages/icons/src/assets/filled/presentation-trend-up.svg

<svg width="24" height="24" viewBox="0 0 24 24" fill="none" xmlns="http://www.w3.org/2000/svg">
<path d="M21 2.25H3C2.586 2.25 2.25 2.586 2.25 3C2.25 3.414 2.586 3.75 3 3.75H4V13C4 15.29 5.21 16.5 7.5 16.5H11.25V18.6L8.58 20.38C8.24 20.61 8.15 21.07 8.38 21.42C8.61 21.76 9.07 21.85 9.42 21.62L12 19.9L14.58 21.62C14.71 21.71 14.86 21.75 15 21.75C15.24 21.75 15.48 21.63 15.62 21.42C15.85 21.07 15.76 20.61 15.42 20.38L12.75 18.6V16.5H16.5C18.79 16.5 20 15.29 20 13V3.75H21C21.414 3.75 21.75 3.414 21.75 3C21.75 2.586 21.414 2.25 21 2.25ZM16.75 10.157C16.75 10.571 16.414 10.907 16 10.907C15.586 10.907 15.25 10.571 15.25 10.157V9.46802L13.692 11.026C13.13 11.588 12.215 11.588 11.654 11.026L10.475 9.84705L8.53101 11.874C8.38501 12.02 8.19301 12.094 8.00101 12.094C7.80901 12.094 7.61699 12.021 7.47099 11.874C7.17799 11.581 7.17799 11.106 7.47099 10.813L9.498 8.78601C10.06 8.22401 10.975 8.22401 11.536 8.78601L12.715 9.96497L14.227 8.40698H13.5C13.086 8.40698 12.75 8.07098 12.75 7.65698C12.75 7.24298 13.086 6.90698 13.5 6.90698H16C16.098 6.90698 16.195 6.92697 16.287 6.96497C16.47 7.04097 16.616 7.18697 16.693 7.37097C16.731 7.46297 16.751 7.55996 16.751 7.65796V10.157H16.75Z" fill="currentColor"/>
</svg>

<svg xmlns="http://www.w3.org/2000/svg" width="24" height="24" fill="none"><path fill="currentColor" d="M21 2.25H3a.75.75 0 0 0 0 1.5h1V13c0 2.29 1.21 3.5 3.5 3.5h3.75v2.1l-2.67 1.78c-.34.23-.43.69-.2 1.04.23.34.69.43 1.04.2L12 19.9l2.58 1.72a.751.751 0 0 0 .84-1.24l-2.67-1.78v-2.1h3.75c2.29 0 3.5-1.21 3.5-3.5V3.75h1a.75.75 0 0 0 0-1.5Zm-4.25 7.907a.75.75 0 0 1-1.5 0v-.689l-1.558 1.558a1.442 1.442 0 0 1-2.038 0l-1.179-1.179-1.944 2.027a.748.748 0 0 1-1.06 0 .75.75 0 0 1 0-1.061l2.027-2.027a1.442 1.442 0 0 1 2.038 0l1.179 1.179 1.512-1.558H13.5a.75.75 0 0 1 0-1.5H16a.75.75 0 0 1 .693.464.75.75 0 0 1 .058.287v2.499h-.001Z"/></svg>
